icons/svg/cookie.svg

﻿<?xml version="1.0" encoding="utf-8"?>
<!DOCTYPE svg PUBLIC "-//W3C//DTD SVG 1.1//EN" "http://www.w3.org/Graphics/SVG/1.1/DTD/svg11.dtd">
<svg xmlns="http://www.w3.org/2000/svg" xmlns:xlink="http://www.w3.org/1999/xlink" version="1.1" baseProfile="full" width="24" height="24" viewBox="0 0 24.00 24.00" enable-background="new 0 0 24.00 24.00" xml:space="preserve">
	<path fill="#000000" fill-opacity="1" stroke-width="1.33333" stroke-linejoin="miter" d="M 12,3C 7.02944,3 3,7.0294 3,12C 3,16.9706 7.02944,21 12,21C 16.9706,21 21,16.9706 21,12C 21.0001,11.4908 20.957,10.9824 20.8711,10.4805C 20.6032,10.0066 20,10 20,10L 18,10L 18,9C 18,8 17,8 17,8L 15,8L 15,7C 15,6 14,6 14,6L 13,6L 13,4C 13,3 12,3 12,3 Z M 9.5,6C 10.3284,6 11,6.6716 11,7.5C 11,8.3284 10.3284,9 9.5,9C 8.67157,9 8,8.3284 8,7.5C 8,6.6716 8.67157,6 9.5,6 Z M 6.5,10C 7.32843,10 8,10.6716 8,11.5C 8,12.3284 7.32843,13 6.5,13C 5.67157,13 5,12.3284 5,11.5C 5,10.6716 5.67157,10 6.5,10 Z M 11.5,11C 12.3284,11 13,11.6716 13,12.5C 13,13.3284 12.3284,14 11.5,14C 10.6716,14 10,13.3284 10,12.5C 10,11.6716 10.6716,11 11.5,11 Z M 16.5,13C 17.3284,13 18,13.6716 18,14.5C 18,15.3284 17.3284,16 16.5,16L 16.5,16C 15.6716,16 15,15.3284 15,14.5L 15,14.5C 15,13.6716 15.6716,13 16.5,13 Z M 11,16C 11.8284,16 12.5,16.6716 12.5,17.5C 12.5,18.3284 11.8284,19 11,19C 10.1716,19 9.5,18.3284 9.5,17.5C 9.5,16.6716 10.1716,16 11,16 Z "/>
</svg>

<svg xmlns="http://www.w3.org/2000/svg" version="1.1" baseProfile="full" width="24" height="24" viewBox="0 0 24.00 24.00" xml:space="preserve"><path fill="#000" fill-opacity="1" stroke-width="1.333" stroke-linejoin="miter" d="M12 3c-4.97 0-9 4.03-9 9s4.03 9 9 9 9-4.03 9-9c0-.51-.043-1.018-.13-1.52-.267-.473-.87-.48-.87-.48h-2V9c0-1-1-1-1-1h-2V7c0-1-1-1-1-1h-1V4c0-1-1-1-1-1zM9.5 6c.828 0 1.5.672 1.5 1.5S10.328 9 9.5 9 8 8.328 8 7.5 8.672 6 9.5 6zm-3 4c.828 0 1.5.672 1.5 1.5S7.328 13 6.5 13 5 12.328 5 11.5 5.672 10 6.5 10zm5 1c.828 0 1.5.672 1.5 1.5s-.672 1.5-1.5 1.5-1.5-.672-1.5-1.5.672-1.5 1.5-1.5zm5 2c.828 0 1.5.672 1.5 1.5s-.672 1.5-1.5 1.5-1.5-.672-1.5-1.5.672-1.5 1.5-1.5zM11 16c.828 0 1.5.672 1.5 1.5S11.828 19 11 19s-1.5-.672-1.5-1.5.672-1.5 1.5-1.5z"/></svg>
